X:1
T:Title
%%score { ( 1 3 ) | ( 2 4 5 ) }
L:1/8
M:4/4
K:A
V:1 treble nm="Grand Piano"
V:3 treble 
V:2 bass 
V:4 bass 
V:5 bass 
V:1
 z4 z2[Q:1/4=100] [CE]2 | [Ec][Ec][DB][DG] [DB] [CA]2 [DF] | [CE][CE][DF][CE] G3 E | %3
 ddd^A [Ec] [^DB]2 [DG] | [^DF][DF][EG][DA] B3 E | [Ec][Ec][Ec][CA] [DB] [CA]2 [CE] | %6
 AA[FB][Fc] [Fd]3 [DB] |[M:17/16] [Fd][Fd][Fc][FB]AE3/2A>B |[M:4/4] c e3 [^Dc]2 [=DB]2 | %9
[M:3/4] [A,CA]6 |[M:1/4] E2 |[M:4/4] A6[K:bass][K:treble] z2 | [B,DG]2 [G,DE]4 z2 | %13
 z2 [G,E]>F z z/ d/ d>d | c2- [Ec-]2 [Ec]2 c2 | e3 A B2 c2 | d2 F4 [Fd]>[^Ed] | %17
 [Ec] [Ae]3 [Ec]2 [DB]2 |[M:3/4] [CA]6 |] %19
V:2
 z4 z2 [A,,A,]2 | [A,,A,][A,,A,][E,G,][E,B,] [A,,A,] [A,,A,]2 [A,,A,] | %2
 [A,,A,][A,,A,][A,,A,][A,,A,] [E,B,D]3 [E,G,] | %3
 [E,G,E][F,A,E][G,B,E][F,CE] [B,,B,] [B,,B,]2 [B,,B,] | %4
 [B,,B,][B,,A,][B,,G,][B,,F,] [E,D]3 [E,G,] | %5
 [A,,A,][A,,A,][A,,A,][A,,A,] [A,,F,] [A,,E,]2 [A,,A,] | %6
 [A,C][E,A,C][D,A,][C,^A,] [B,,B,]3 [B,,F,] | %7
[M:17/16] [B,,B,][B,,B,][C,^A,][D,B,][E,CE][E,=A,C]3/2[E,A,C]>[E,G,D] | %8
[M:4/4] [A,E] [A,CE]3 [B,,A,]2 [E,G,]2 |[M:3/4] A,,6 |[M:1/4] E,2 | %11
[M:4/4] [A,,E,]2 A,,2 z z/ A/ z z/ F/ | E,2 E,4[K:treble] E2 | d6[K:bass] z2 | %14
 [A,,A,]2 [A,,A,]2 [A,,A,]2 [A,E]2 | [A,CE]3 [A,CE] [G,B,E]2 [=G,A,E]2 | %16
 [F,A,D]2 [D,A,D]4 [D,A,]>[D,A,] | [E,A,] [E,C]3 [E,A,]2 [E,G,]2 |[M:3/4] [A,,A,]6 |] %19
V:3
 x8 | x8 | x8 | x8 | x8 | x8 | x8 |[M:17/16] x17/2 |[M:4/4] x8 |[M:3/4] x6 |[M:1/4] x2 | %11
[M:4/4] C2[K:bass] [E,C]2 [E,C]2[K:treble] [A,CA]2 | x8 | z4 G2 z2 | E2 z2 z4 | x8 | x8 | x8 | %18
[M:3/4] x6 |] %19
V:4
 x8 | x8 | x8 | x8 | x8 | x8 | x8 |[M:17/16] x17/2 |[M:4/4] x8 |[M:3/4] x6 |[M:1/4] x2 | %11
[M:4/4] z4 A,,2 A,,2 | x6[K:treble] x2 | z2[K:bass] z z/ A,/ [E,B,]2 [A,F]>[G,E] | x8 | x8 | x8 | %17
 x8 |[M:3/4] x6 |] %19
V:5
 x8 | x8 | x8 | x8 | x8 | x8 | x8 |[M:17/16] x17/2 |[M:4/4] x8 |[M:3/4] x6 |[M:1/4] x2 | %11
[M:4/4] x8 | x6[K:treble] x2 | z2[K:bass] E,2 z2 E,2 | x8 | x8 | x8 | x8 |[M:3/4] x6 |] %19

